src/lib/packages/icons/src/assets/filled/chat-times.svg

<svg width="24" height="24" viewBox="0 0 24 24" fill="none" xmlns="http://www.w3.org/2000/svg">
<path d="M13.514 18.63C13.472 19.283 13.544 19.908 13.71 20.494C13.759 20.667 13.658 20.848 13.481 20.878C13.002 20.957 12.506 20.996 12.003 20.996C10.663 20.996 9.38394 20.696 8.24394 20.166C7.80394 19.956 7.29401 19.956 6.82402 20.106L4.32402 20.946C3.53902 21.21 2.79 20.462 3.054 19.676L3.89408 17.177C4.04408 16.707 4.04402 16.197 3.83402 15.757C2.93502 13.823 2.69813 11.486 3.46513 9.13701C4.50113 5.96501 7.32013 3.59401 10.6211 3.10301C16.2021 2.27301 21 6.57597 21 11.998C21 12.501 20.9601 12.997 20.8821 13.476C20.8531 13.654 20.6721 13.755 20.4981 13.705C19.9121 13.539 19.2871 13.467 18.6341 13.509C15.9341 13.685 13.689 15.93 13.514 18.63ZM20.0611 19L21.531 17.53C21.824 17.237 21.824 16.762 21.531 16.469C21.238 16.176 20.763 16.176 20.47 16.469L19 17.939L17.5301 16.469C17.2371 16.176 16.762 16.176 16.469 16.469C16.176 16.762 16.176 17.237 16.469 17.53L17.939 19L16.469 20.47C16.176 20.763 16.176 21.238 16.469 21.531C16.615 21.677 16.8071 21.751 16.9991 21.751C17.1911 21.751 17.3831 21.678 17.5291 21.531L18.9991 20.061L20.469 21.531C20.615 21.677 20.8071 21.751 20.9991 21.751C21.1911 21.751 21.3831 21.678 21.5291 21.531C21.8221 21.238 21.8221 20.763 21.5291 20.47L20.0611 19Z" fill="currentColor"/>
</svg>

<svg xmlns="http://www.w3.org/2000/svg" width="24" height="24" fill="none"><path fill="currentColor" d="M13.514 18.63c-.042.653.03 1.278.196 1.864.049.173-.052.354-.229.384a9.1 9.1 0 0 1-1.478.118c-1.34 0-2.62-.3-3.76-.83-.44-.21-.949-.21-1.419-.06l-2.5.84a1.003 1.003 0 0 1-1.27-1.27l.84-2.499c.15-.47.15-.98-.06-1.42-.899-1.934-1.136-4.271-.369-6.62 1.036-3.172 3.855-5.543 7.156-6.034C16.202 2.273 21 6.576 21 11.998c0 .503-.04.999-.118 1.478-.029.178-.21.279-.384.229a5.514 5.514 0 0 0-1.864-.196c-2.7.176-4.945 2.421-5.12 5.121Zm6.547.37 1.47-1.47a.75.75 0 1 0-1.061-1.061L19 17.939l-1.47-1.47a.75.75 0 0 0-1.061 1.061l1.47 1.47-1.47 1.47a.75.75 0 0 0 1.06 1.061l1.47-1.47 1.47 1.47a.748.748 0 0 0 1.06 0 .75.75 0 0 0 0-1.061L20.061 19Z"/></svg>
